assets/svgs/misc-grey/MiscGrey11.svg

<svg width="41" height="36" viewBox="0 0 41 36" fill="none" xmlns="http://www.w3.org/2000/svg">
<path fill-rule="evenodd" clip-rule="evenodd" d="M37.46 32.46C37.46 32.73 37.23 32.96 36.96 32.96H32.9V10.62H36.96C37.23 10.62 37.46 10.85 37.46 11.12V32.46ZM3.79004 32.46V11.12C3.79004 10.85 4.02004 10.62 4.29004 10.62H8.21004V32.96H4.29004C4.02004 32.96 3.79004 32.73 3.79004 32.46ZM14.88 3.62C14.88 3.35 15.11 3.12 15.38 3.12H25.88C26.15 3.12 26.38 3.35 26.38 3.62V7.62H14.88V3.62ZM11.21 32.96H29.9V10.62H11.21V32.96ZM36.96 7.62H29.38V3.62C29.38 1.69 27.81 0.119995 25.88 0.119995H15.38C13.45 0.119995 11.88 1.69 11.88 3.62V7.62H4.29004C2.36004 7.62 0.790039 9.18999 0.790039 11.12V32.46C0.790039 34.39 2.36004 35.96 4.29004 35.96H36.96C38.89 35.96 40.46 34.39 40.46 32.46V11.12C40.46 9.18999 38.89 7.62 36.96 7.62Z" fill="#1A1919"/>
</svg>

<svg xmlns="http://www.w3.org/2000/svg" fill="none" viewBox="0 0 41 36"><path fill="#1A1919" fill-rule="evenodd" d="M37.46 32.46c0 .27-.23.5-.5.5H32.9V10.62h4.06c.27 0 .5.23.5.5v21.34zm-33.67 0V11.12c0-.27.23-.5.5-.5h3.92v22.34H4.29c-.27 0-.5-.23-.5-.5zM14.88 3.62c0-.27.23-.5.5-.5h10.5c.27 0 .5.23.5.5v4h-11.5v-4zm-3.67 29.34H29.9V10.62H11.21v22.34zM36.96 7.62h-7.58v-4c0-1.93-1.57-3.5-3.5-3.5h-10.5c-1.93 0-3.5 1.57-3.5 3.5v4H4.29c-1.93 0-3.5 1.57-3.5 3.5v21.34c0 1.93 1.57 3.5 3.5 3.5h32.67c1.93 0 3.5-1.57 3.5-3.5V11.12c0-1.93-1.57-3.5-3.5-3.5z" clip-rule="evenodd"/></svg>
